images/icons/vip.svg

<?xml version="1.0" encoding="UTF-8"?>
<svg xmlns="http://www.w3.org/2000/svg" xmlns:xlink="http://www.w3.org/1999/xlink" width="73px" height="74px" viewBox="0 0 73 73" version="1.1">
<g id="surface1">
<path style=" stroke:none;fill-rule:nonzero;fill:rgb(0%,0%,0%);fill-opacity:1;" d="M 71.574219 37.996094 L 67.738281 37.996094 C 66.949219 37.996094 66.3125 37.363281 66.3125 36.585938 C 66.3125 35.804688 66.949219 35.175781 67.738281 35.175781 L 71.574219 35.175781 C 72.363281 35.175781 73 35.804688 73 36.585938 C 73 37.363281 72.363281 37.996094 71.574219 37.996094 Z M 71.574219 37.996094 "/>
<path style=" stroke:none;fill-rule:nonzero;fill:rgb(0%,0%,0%);fill-opacity:1;" d="M 58.957031 15.992188 C 58.589844 15.992188 58.226562 15.855469 57.949219 15.578125 C 57.390625 15.027344 57.390625 14.136719 57.949219 13.585938 L 60.660156 10.902344 C 61.214844 10.351562 62.121094 10.351562 62.675781 10.902344 C 63.234375 11.453125 63.234375 12.34375 62.675781 12.894531 L 59.964844 15.578125 C 59.6875 15.855469 59.320312 15.992188 58.957031 15.992188 Z M 58.957031 15.992188 "/>
<path style=" stroke:none;fill-rule:nonzero;fill:rgb(0%,0%,0%);fill-opacity:1;" d="M 61.667969 62.683594 C 61.304688 62.683594 60.9375 62.546875 60.660156 62.269531 L 57.949219 59.585938 C 57.390625 59.035156 57.390625 58.140625 57.949219 57.589844 C 58.503906 57.039062 59.40625 57.039062 59.964844 57.589844 L 62.675781 60.277344 C 63.234375 60.828125 63.234375 61.71875 62.675781 62.269531 C 62.398438 62.546875 62.035156 62.683594 61.667969 62.683594 Z M 61.667969 62.683594 "/>
<path style=" stroke:none;fill-rule:nonzero;fill:rgb(0%,0%,0%);fill-opacity:1;" d="M 5.261719 37.996094 L 1.425781 37.996094 C 0.636719 37.996094 0 37.363281 0 36.585938 C 0 35.804688 0.636719 35.175781 1.425781 35.175781 L 5.261719 35.175781 C 6.050781 35.175781 6.6875 35.804688 6.6875 36.585938 C 6.6875 37.363281 6.050781 37.996094 5.261719 37.996094 Z M 5.261719 37.996094 "/>
<path style=" stroke:none;fill-rule:nonzero;fill:rgb(0%,0%,0%);fill-opacity:1;" d="M 11.332031 62.683594 C 10.964844 62.683594 10.601562 62.546875 10.324219 62.269531 C 9.765625 61.71875 9.765625 60.828125 10.324219 60.277344 L 13.035156 57.589844 C 13.59375 57.039062 14.496094 57.039062 15.050781 57.589844 C 15.609375 58.140625 15.609375 59.035156 15.054688 59.585938 L 12.339844 62.269531 C 12.0625 62.542969 11.695312 62.683594 11.332031 62.683594 Z M 11.332031 62.683594 "/>
<path style=" stroke:none;fill-rule:nonzero;fill:rgb(0%,0%,0%);fill-opacity:1;" d="M 14.042969 15.992188 C 13.679688 15.992188 13.316406 15.855469 13.035156 15.578125 L 10.324219 12.894531 C 9.765625 12.34375 9.765625 11.453125 10.324219 10.902344 C 10.878906 10.351562 11.78125 10.351562 12.339844 10.902344 L 15.050781 13.585938 C 15.609375 14.136719 15.609375 15.027344 15.050781 15.578125 C 14.773438 15.855469 14.410156 15.992188 14.042969 15.992188 Z M 14.042969 15.992188 "/>
<path style=" stroke:none;fill-rule:nonzero;fill:rgb(0%,0%,0%);fill-opacity:1;" d="M 49.648438 24.535156 C 49.050781 24.535156 48.507812 24.152344 48.304688 23.601562 C 48.105469 23.054688 48.277344 22.425781 48.726562 22.050781 C 49.191406 21.660156 49.878906 21.609375 50.398438 21.929688 C 50.898438 22.234375 51.160156 22.832031 51.042969 23.402344 C 50.914062 24.050781 50.316406 24.535156 49.648438 24.535156 Z M 49.648438 24.535156 "/>
<path style=" stroke:none;fill-rule:nonzero;fill:rgb(0%,0%,0%);fill-opacity:1;" d="M 64.183594 37.523438 C 64.671875 36.96875 64.652344 36.132812 64.140625 35.601562 C 64.136719 35.597656 55.230469 26.65625 55.230469 26.65625 C 54.675781 26.097656 53.773438 26.09375 53.214844 26.640625 C 52.652344 27.1875 52.644531 28.078125 53.199219 28.632812 L 59.714844 35.175781 L 50.402344 35.175781 L 37.925781 22.765625 L 37.925781 13.519531 L 44.035156 19.566406 C 44.589844 20.117188 45.492188 20.117188 46.050781 19.566406 C 46.609375 19.019531 46.609375 18.125 46.050781 17.574219 L 37.515625 9.121094 C 37.511719 9.117188 37.507812 9.113281 37.503906 9.109375 C 36.945312 8.558594 36.042969 8.566406 35.488281 9.117188 C 35.488281 9.117188 35.484375 9.117188 35.484375 9.121094 L 8.875 35.585938 C 8.867188 35.597656 8.839844 35.625 8.796875 35.671875 C 8.316406 36.230469 8.347656 37.0625 8.871094 37.582031 L 8.875 37.582031 C 8.875 37.582031 35.488281 64.054688 35.492188 64.054688 C 35.492188 64.054688 35.492188 64.058594 35.496094 64.0625 C 36.066406 64.554688 36.917969 64.558594 37.492188 64.070312 L 37.511719 64.054688 L 64.121094 37.585938 C 64.132812 37.578125 64.152344 37.554688 64.183594 37.523438 Z M 47.800781 36.585938 L 36.5 47.824219 L 25.199219 36.585938 L 36.5 25.347656 Z M 35.074219 13.527344 L 35.074219 22.765625 L 22.597656 35.175781 L 13.308594 35.175781 Z M 22.597656 37.996094 L 35.074219 50.40625 L 35.074219 59.640625 L 13.308594 37.996094 Z M 37.925781 59.640625 L 37.925781 50.40625 L 50.402344 37.996094 L 59.691406 37.996094 Z M 37.925781 59.640625 "/>
</g>
</svg>

<svg xmlns="http://www.w3.org/2000/svg" width="73" height="74" viewBox="0 0 73 73"><path style="stroke:none;fill-rule:nonzero;fill:#000;fill-opacity:1" d="M71.574 37.996h-3.836a1.417 1.417 0 0 1-1.425-1.41c0-.781.636-1.41 1.425-1.41h3.836c.79 0 1.426.629 1.426 1.41 0 .777-.637 1.41-1.426 1.41ZM58.957 15.992c-.367 0-.73-.137-1.008-.414a1.394 1.394 0 0 1 0-1.992l2.711-2.684a1.438 1.438 0 0 1 2.016 0 1.396 1.396 0 0 1 0 1.993l-2.711 2.683a1.422 1.422 0 0 1-1.008.414Zm2.711 46.692c-.363 0-.73-.137-1.008-.414l-2.71-2.684a1.398 1.398 0 0 1 0-1.996 1.436 1.436 0 0 1 2.015 0l2.71 2.687c.56.551.56 1.442 0 1.993-.277.277-.64.414-1.007.414ZM5.262 37.996H1.426c-.79 0-1.426-.633-1.426-1.41 0-.781.637-1.41 1.426-1.41h3.836c.789 0 1.426.629 1.426 1.41 0 .777-.637 1.41-1.426 1.41Zm6.07 24.688c-.367 0-.73-.137-1.008-.414a1.394 1.394 0 0 1 0-1.993l2.711-2.687a1.438 1.438 0 0 1 2.016 0c.558.55.558 1.445.004 1.996L12.34 62.27a1.439 1.439 0 0 1-1.008.414Zm2.711-46.692a1.43 1.43 0 0 1-1.008-.414l-2.71-2.683a1.394 1.394 0 0 1 0-1.993 1.436 1.436 0 0 1 2.015 0l2.71 2.684c.56.55.56 1.441 0 1.992-.277.277-.64.414-1.007.414Zm35.605 8.543c-.597 0-1.14-.383-1.343-.933a1.41 1.41 0 0 1 .422-1.551 1.447 1.447 0 0 1 1.671-.121c.5.304.762.902.645 1.472a1.434 1.434 0 0 1-1.395 1.133Zm0 0"/><path style="stroke:none;fill-rule:nonzero;fill:#000;fill-opacity:1" d="M64.184 37.523a1.419 1.419 0 0 0-.043-1.921l-8.91-8.946a1.432 1.432 0 0 0-2.016-.015 1.394 1.394 0 0 0-.016 1.992l6.516 6.543h-9.313l-12.476-12.41V13.52l6.11 6.046a1.435 1.435 0 0 0 2.015 0 1.394 1.394 0 0 0 0-1.992l-8.535-8.453-.012-.012a1.436 1.436 0 0 0-2.016.008s-.004 0-.004.004L8.875 35.586c-.008.012-.035.039-.078.086a1.4 1.4 0 0 0 .074 1.91h.004s26.613 26.473 26.617 26.473c0 0 0 .004.004.007.57.493 1.422.497 1.996.008l.02-.015 26.61-26.47c.01-.007.03-.03.062-.062ZM47.8 36.586 36.5 47.824 25.2 36.586l11.3-11.238ZM35.074 13.527v9.239l-12.476 12.41h-9.29Zm-12.476 24.47 12.476 12.41v9.234L13.31 37.996ZM37.926 59.64v-9.235l12.476-12.41h9.29Zm0 0"/></svg>
